4/images/icons/ice-cream-cone.svg

<svg width="24" height="24" viewBox="0 0 24 24" fill="none" xmlns="http://www.w3.org/2000/svg">
<path d="M12.0259 1.20198C12.902 1.20176 13.7628 1.42519 14.522 1.84987C15.2813 2.27455 15.9122 2.88558 16.3518 3.62172C16.7913 4.35787 17.024 5.19329 17.0265 6.04428C17.0289 6.89527 16.8011 7.73195 16.3658 8.47049C16.6678 8.51237 16.9518 8.63509 17.1859 8.82491C17.4201 9.01472 17.5952 9.26412 17.6917 9.54517C17.7881 9.82622 17.8021 10.1278 17.732 10.4161C17.662 10.7045 17.5106 10.9681 17.295 11.1776C17.0793 11.3871 16.8078 11.5341 16.511 11.6022C16.2141 11.6702 15.9036 11.6567 15.6143 11.563C15.325 11.4693 15.0682 11.2992 14.8728 11.0717C14.6774 10.8443 14.551 10.5684 14.5079 10.2752C14.446 10.3095 14.3824 10.3421 14.3187 10.3748C14.2303 10.9035 13.9511 11.3845 13.531 11.7316C13.1109 12.0787 12.5774 12.2693 12.0259 12.2693C11.4744 12.2693 10.9409 12.0787 10.5208 11.7316C10.1007 11.3845 9.82148 10.9035 9.73305 10.3748C9.66941 10.3421 9.60577 10.3095 9.5439 10.2752C9.50089 10.5687 9.37449 10.8448 9.1789 11.0725C8.98331 11.3001 8.72627 11.4703 8.43663 11.564C8.14698 11.6576 7.8362 11.671 7.53917 11.6026C7.24214 11.5342 6.97061 11.3867 6.75506 11.1768C6.53952 10.9668 6.38848 10.7026 6.31892 10.4139C6.24935 10.1252 6.26401 9.82339 6.36124 9.54232C6.45847 9.26125 6.63442 9.01206 6.86936 8.82274C7.10429 8.63341 7.3889 8.51143 7.69124 8.47049C7.25619 7.73233 7.02839 6.89612 7.03062 6.04557C7.03285 5.19501 7.26505 4.35995 7.70397 3.62395C8.14288 2.88796 8.77313 2.27685 9.53161 1.8518C10.2901 1.42675 11.1502 1.20267 12.0259 1.20198ZM12.0259 1.15578e-06C11.0443 -0.000587851 10.0764 0.223958 9.20096 0.655363C8.32556 1.08677 7.5674 1.71284 6.98817 2.48264C6.40894 3.25243 6.02502 4.14418 5.86765 5.08533C5.71028 6.02647 5.78391 6.99041 6.08254 7.89869C5.5038 8.34687 5.12536 8.99463 5.02602 9.70706C4.92668 10.4195 5.1141 11.1417 5.54925 11.7233C5.98441 12.3048 6.63375 12.7009 7.36206 12.8291C8.09037 12.9572 8.8415 12.8076 9.45904 12.4112C9.79249 12.7474 10.1923 13.0147 10.6345 13.1973C11.0768 13.3799 11.5524 13.4741 12.033 13.4741C12.5135 13.4741 12.9891 13.3799 13.4314 13.1973C13.8736 13.0147 14.2734 12.7474 14.6069 12.4112C15.2247 12.7846 15.9652 12.9166 16.6792 12.7804C17.3932 12.6443 18.0275 12.2502 18.4541 11.6777C18.8807 11.1051 19.0679 10.3968 18.9779 9.69543C18.8879 8.9941 18.5275 8.35201 17.9692 7.89869C18.2679 6.99041 18.3415 6.02647 18.1841 5.08533C18.0268 4.14418 17.6428 3.25243 17.0636 2.48264C16.4844 1.71284 15.7262 1.08677 14.8508 0.655363C13.9754 0.223958 13.0075 -0.000587851 12.0259 1.15578e-06Z" fill="#2D3440"/>
<path d="M16.1325 13.5325C15.6457 13.5315 15.1644 13.4333 14.7183 13.244C14.6528 13.2956 14.5839 13.3419 14.515 13.39L14.6087 13.4793L13.9192 14.149L13.624 13.8622C13.502 13.9086 13.3783 13.9498 13.251 13.9858L13.6682 14.3911L12.9805 15.0607L12.2875 14.3911L12.5615 14.1249C12.3856 14.1467 12.2085 14.1582 12.0312 14.1593C11.8592 14.1589 11.6874 14.148 11.5168 14.1266L11.789 14.3911L11.0996 15.0607L10.4101 14.3911L10.8238 13.9893C10.6979 13.9543 10.574 13.913 10.4525 13.8656L10.1556 14.149L9.45904 13.4793L9.54567 13.3951C9.47319 13.3454 9.40248 13.2973 9.33353 13.244C8.88744 13.4333 8.40607 13.5315 7.91929 13.5325C7.88393 13.5325 7.84858 13.5325 7.81322 13.5325C7.79981 13.6261 7.8095 13.7215 7.8415 13.8107L11.4443 23.6188C11.4482 23.6305 11.453 23.642 11.4584 23.6531C11.4632 23.6651 11.4692 23.6766 11.4761 23.6875C11.4885 23.7115 11.5026 23.7338 11.5168 23.7562L11.5327 23.7785C11.5544 23.8068 11.5787 23.8332 11.6052 23.8575L11.6228 23.8712L11.6918 23.9227L11.7236 23.9399C11.7481 23.9531 11.7735 23.9645 11.7996 23.9742H11.8191L11.8898 23.9914H11.9181C11.9835 24.0029 12.0506 24.0029 12.1161 23.9914H12.1461L12.215 23.9742H12.2451C12.2705 23.9642 12.2953 23.9527 12.3193 23.9399L12.3512 23.921C12.376 23.9069 12.3991 23.8902 12.4201 23.8712L12.4396 23.8575C12.4656 23.8328 12.4898 23.8064 12.512 23.7785L12.5262 23.7562C12.542 23.7343 12.5562 23.7113 12.5686 23.6875L12.6004 23.6188L16.2103 13.8055C16.2431 13.7165 16.2528 13.6209 16.2386 13.5274C16.2032 13.5274 16.1767 13.5325 16.1325 13.5325ZM13.6576 16.2164L12.9681 16.886L12.2875 16.2164L12.9752 15.5467L13.6576 16.2164ZM11.3435 17.1281L12.033 16.4585L12.7224 17.1281L12.033 17.7978L11.3435 17.1281ZM12.7224 18.9534L12.033 19.6231L11.3435 18.9534L12.033 18.2838L12.7224 18.9534ZM12.033 14.6349L12.7224 15.3046L12.033 15.9691L11.3435 15.2994L12.033 14.6349ZM11.7837 16.2164L11.0943 16.886L10.4048 16.2164L11.0943 15.5467L11.7837 16.2164ZM9.14791 13.7884L9.21509 13.7231L9.90453 14.3911L9.51031 14.7671L9.14791 13.7884ZM9.63582 15.1329L10.1485 14.6349L10.8362 15.3046L10.1556 15.9691L9.83912 15.6617L9.63582 15.1329ZM10.1361 16.4842L10.1556 16.4653L10.8432 17.135L10.4985 17.4784L10.1361 16.4842ZM10.8733 18.5018L10.6223 17.815L11.0872 17.3651L11.7766 18.0348L11.0943 18.7165L10.8733 18.5018ZM11.4796 20.1537L11.1491 19.2573L11.7766 19.8652L11.4796 20.1537ZM12.0188 21.6235L11.6105 20.5108L12.0259 20.1073L12.4307 20.5005L12.0188 21.6235ZM12.5633 20.1434L12.2875 19.8652L12.8903 19.278L12.5633 20.1434ZM13.1714 18.5241L12.9717 18.7165L12.2875 18.0399L12.9752 17.372L13.4295 17.8115L13.1714 18.5241ZM13.5639 17.4544L13.2298 17.1281L13.9192 16.4585V16.4671L13.5639 17.4544ZM14.2127 15.6875L13.9121 15.9691L13.2227 15.2994L13.9121 14.6297L14.4089 15.1226L14.2127 15.6875ZM14.545 14.7671L14.1614 14.3928L14.8508 13.7231L14.9074 13.7781L14.545 14.7671Z" fill="#2D3440"/>
</svg>

<svg width="24" height="24" fill="none" xmlns="http://www.w3.org/2000/svg"><path d="M12.026 1.202c.876 0 1.737.223 2.496.648a4.93 4.93 0 0 1 1.83 1.772 4.75 4.75 0 0 1 .674 2.422 4.75 4.75 0 0 1-.66 2.426c.302.042.586.165.82.355.234.19.41.44.506.72.096.281.11.583.04.871-.07.288-.221.552-.437.762-.216.21-.487.356-.784.424a1.69 1.69 0 0 1-.897-.039 1.645 1.645 0 0 1-.741-.491 1.574 1.574 0 0 1-.365-.797c-.062.034-.126.067-.19.1a2.241 2.241 0 0 1-.787 1.357c-.42.347-.954.537-1.505.537-.552 0-1.085-.19-1.505-.537-.42-.348-.7-.829-.788-1.357l-.19-.1c-.042.294-.169.57-.364.797a1.646 1.646 0 0 1-.742.492c-.29.094-.6.107-.898.039a1.656 1.656 0 0 1-.784-.426 1.584 1.584 0 0 1-.436-.763c-.07-.289-.055-.59.042-.872.097-.28.273-.53.508-.72.235-.189.52-.31.822-.352a4.749 4.749 0 0 1-.66-2.424 4.75 4.75 0 0 1 .673-2.422 4.93 4.93 0 0 1 1.828-1.772 5.113 5.113 0 0 1 2.494-.65Zm0-1.202c-.982 0-1.95.224-2.825.655a6.191 6.191 0 0 0-2.213 1.828 5.965 5.965 0 0 0-1.12 2.602A5.89 5.89 0 0 0 6.083 7.9a2.774 2.774 0 0 0-1.057 1.808c-.1.712.088 1.435.523 2.016a2.886 2.886 0 0 0 1.813 1.106 2.944 2.944 0 0 0 2.097-.418c.333.336.733.604 1.175.786a3.666 3.666 0 0 0 2.797 0c.443-.182.842-.45 1.176-.786a2.945 2.945 0 0 0 2.072.37 2.884 2.884 0 0 0 1.775-1.103c.427-.573.614-1.281.524-1.983A2.77 2.77 0 0 0 17.969 7.9a5.889 5.889 0 0 0 .215-2.814 5.964 5.964 0 0 0-1.12-2.602A6.19 6.19 0 0 0 14.85.655 6.385 6.385 0 0 0 12.026 0Z" fill="#2D3440"/><path d="M16.133 13.533a3.64 3.64 0 0 1-1.415-.289c-.065.052-.134.098-.203.146l.094.09-.69.669-.295-.287a4.462 4.462 0 0 1-.373.124l.417.405-.688.67-.693-.67.274-.266a4.212 4.212 0 0 1-1.045.002l.273.264-.69.67-.689-.67.414-.402a3.883 3.883 0 0 1-.371-.123l-.297.283-.697-.67.087-.084c-.073-.05-.144-.098-.212-.151-.447.19-.928.287-1.415.289h-.106a.58.58 0 0 0 .029.278l3.602 9.808a.284.284 0 0 0 .014.034.9.9 0 0 0 .058.103l.017.023a.615.615 0 0 0 .072.079l.018.013.069.052.032.017c.024.013.05.024.076.034h.02l.07.017h.028a.572.572 0 0 0 .198 0h.03l.069-.017h.03a.712.712 0 0 0 .074-.034l.032-.019a.39.39 0 0 0 .07-.05l.019-.013a.772.772 0 0 0 .072-.08l.014-.022a.559.559 0 0 0 .043-.069l.031-.068 3.61-9.813a.56.56 0 0 0 .029-.279c-.036 0-.062.006-.107.006Zm-2.475 2.683-.69.67-.68-.67.687-.67.683.67Zm-2.314.912.689-.67.69.67-.69.67-.69-.67Zm1.378 1.825-.689.67-.69-.67.69-.67.69.67Zm-.689-4.318.69.67-.69.664-.69-.67.69-.664Zm-.25 1.581-.689.67-.69-.67.69-.67.69.67Zm-2.635-2.428.067-.065.69.668-.395.376-.362-.979Zm.488 1.345.513-.498.687.67-.68.664-.317-.307-.203-.53Zm.5 1.351.02-.019.687.67-.345.343-.362-.994Zm.737 2.018-.25-.687.464-.45.69.67-.683.681-.22-.214Zm.607 1.652-.33-.897.627.608-.297.289Zm.539 1.47-.409-1.113.416-.404.405.393-.412 1.123Zm.544-1.48-.276-.279.603-.587-.327.865Zm.608-1.62-.2.192-.684-.676.688-.668.455.44-.259.712Zm.393-1.07-.334-.326.69-.67v.01l-.356.986Zm.649-1.767-.3.282-.69-.67.69-.67.496.494-.196.565Zm.332-.92-.384-.374.69-.67.056.055-.362.99Z" fill="#2D3440"/></svg>
